resources/icons/16px/unlink.svg

<svg width="16" height="16" viewBox="0 0 16 16" fill="none" xmlns="http://www.w3.org/2000/svg">
<path fill-rule="evenodd" clip-rule="evenodd" d="M11.9975 0.00500107C14.2061 0.00500107 15.995 1.79388 15.995 4.0025C15.995 5.11181 15.5353 6.0912 14.8058 6.81075L14.8257 6.83074L13.8264 7.83011L13.8064 7.81012C13.2562 8.36798 12.5482 8.76807 11.7539 8.92548L10.8249 7.99643L12.4073 6.401L13.4066 5.40163L13.3966 5.39163C13.7564 5.03186 13.9963 4.54217 13.9963 3.99251C13.9963 2.8932 13.0968 1.99376 11.9975 1.99376C11.4479 1.99376 10.9582 2.23361 10.5984 2.59338L10.5884 2.58339L8.0001 5.17168L7.07559 4.24717C7.23518 3.45247 7.63943 2.74409 8.18989 2.19363L8.1699 2.17365L9.16928 1.17427L9.18926 1.19426C9.90882 0.464714 10.8982 0.00500107 11.9975 0.00500107ZM2.29289 2.29289C2.68341 1.90237 3.31657 1.90237 3.7071 2.29289L13.7071 12.2929C14.0976 12.6834 14.0976 13.3166 13.7071 13.7071C13.3166 14.0976 12.6834 14.0976 12.2929 13.7071L8.93565 10.3499C8.97565 10.562 8.99938 10.7781 8.99938 10.9981C8.99938 12.0974 8.53966 13.0868 7.81012 13.8064L7.83011 13.8263L6.83073 14.8257L6.81074 14.8057C6.09119 15.5353 5.10181 15.995 4.0025 15.995C1.79388 15.995 0.00499688 14.2061 0.00499688 11.9975C0.00499688 10.8982 0.464709 9.90879 1.19425 9.18924L1.17427 9.16925L2.17364 8.16988L2.19363 8.18986C2.91318 7.46032 3.90256 7.00061 5.00187 7.00061C5.2251 7.00061 5.44064 7.02369 5.65087 7.06509L2.29289 3.7071C1.90236 3.31658 1.90236 2.68341 2.29289 2.29289ZM8.00244 9.41666L8.707 10.1212L5.41162 13.4166L5.40162 13.4066C5.04185 13.7664 4.55216 14.0062 4.0025 14.0062C2.90319 14.0062 2.00375 13.1068 2.00375 12.0075C2.00375 11.4578 2.2436 10.9681 2.60337 10.6084L2.59338 10.5984L5.88876 7.30298L6.58333 7.99755L4.29231 10.2886C4.11243 10.4685 4.00249 10.7183 4.00249 10.9981C4.00249 11.5478 4.45221 11.9975 5.00187 11.9975C5.28169 11.9975 5.53154 11.8876 5.71143 11.7077L8.00244 9.41666ZM8.70466 5.87623L10.1238 7.29534L11.7077 5.71143C11.8876 5.53154 11.9975 5.2817 11.9975 5.00187C11.9975 4.45222 11.5478 4.0025 10.9981 4.0025C10.7183 4.0025 10.4685 4.11243 10.2886 4.29232L8.70466 5.87623Z" fill="#5F6B7C"/>
</svg>

<svg xmlns="http://www.w3.org/2000/svg" viewBox="0 0 16 16">
  <path d="M11.998.005a3.996 3.996 0 0 1 3.997 3.998c0 1.109-.46 2.088-1.19 2.808l.02.02-.999 1-.02-.02a3.97 3.97 0 0 1-2.052 1.114l-.93-.929 1.583-1.595 1-1-.01-.01c.36-.36.6-.849.6-1.398 0-1.1-.9-2-2-2-.55 0-1.039.24-1.399.6l-.01-.01L8 5.172l-.924-.925A4.04 4.04 0 0 1 8.19 2.194l-.02-.02 1-1 .02.02A3.93 3.93 0 0 1 11.997.005M2.293 2.293a1 1 0 0 1 1.414 0l10 10a1 1 0 0 1-1.414 1.414L8.936 10.35q.061.318.063.648c0 1.1-.46 2.089-1.189 2.808l.02.02-1 1-.02-.02a3.93 3.93 0 0 1-2.807 1.189 3.996 3.996 0 0 1-3.998-3.997c0-1.1.46-2.09 1.19-2.809l-.02-.02.999-1 .02.02a3.93 3.93 0 0 1 2.808-1.188q.334.001.649.064L2.293 3.707a1 1 0 0 1 0-1.414m5.71 7.124.704.704-3.295 3.296-.01-.01c-.36.36-.85.6-1.4.6-1.099 0-1.998-.9-1.998-2 0-.55.24-1.039.6-1.399l-.01-.01 3.295-3.295.694.695-2.29 2.29a1.002 1.002 0 0 0 1.42 1.42zm.702-3.54 1.419 1.418 1.584-1.584a1.002 1.002 0 0 0-1.42-1.42z"/>
</svg>
